src/svgs/module.svg

<svg xmlns="http://www.w3.org/2000/svg" viewBox="0 0 24 24" width="512" height="512"><path d="M22 9V7h-3V5h-2V2h-2v3h-2V2h-2v3H9V2H7v3H5v2H2v2h3v2H2v2h3v2H2v2h3v2h2v3h2v-3h2v3h2v-3h2v3h2v-3h2v-2h3v-2h-3v-2h3v-2h-3V9zM9 9h6v6H9z"/></svg>

<svg xmlns="http://www.w3.org/2000/svg" viewBox="0 0 24 24"><path d="M22,9V7H19V5H17V2H15V5H13V2H11V5H9V2H7V5H5V7H2V9H5v2H2v2H5v2H2v2H5v2H7v3H9V19h2v3h2V19h2v3h2V19h2V17h3V15H19V13h3V11H19V9ZM9,9h6v6H9Z"/></svg>
